X:206
T:Maid in the Cherry Tree
Z: id:dc-reel-188
M:C
L:1/8
K:G Major
G2BG dGBd|eaag efg2|G2BG dGBd|egdB AGEF|!
G2BG dGBd|eaag efga|bgag eaaf|gedB AGED:|!
g3d edBA|dGG2 Bdef|g2ag edBd|egdB AGED|!
g3d egge|dBB2 dega|bgag eaaf|gedB AGED:|!

